X: 1
T: Teahan's Favourite
R: slide
M: 12/8
L: 1/8
K: Emin
e3B2A GFEB2E|FEDA2Dd2DA2d|e3B2A GFEB2E|FEDF2AF2EE3|
e3B2A GFEB2E|FEDA2Dd2DA3|e3B2A GFEB2E|FEDF2AF2EE3||
B2e edef2a afa|bafa2fe2dB2A|B2e edef2a afa|bafa2fe3e2d|
B2e edef2a afa|bafa2fe2dB3|faff2e efeB2A|FEDF2AF2EE3||


Tune 2613	Setting 15870

